X:293
T: HERR ZACHAEUS WAR EIN KREUZFIDELES HAUS
N: F0512
O: Europa, Mitteleuropa, Deutschland
R: Studenten -, Trink - Lied
M: 3/4
L: 1/16
K: G
G3G | G4D4B3B | B4G4
B3c | d6e2d3c | c4B4z3
d | d3dd6e2 | d3cc8 |
B2G2d6B2 | B3AA8 |
B3cd6B2 | A4G4z4 |
G6A2B2c2 | d2D2G4z4 |
G6A2B2c2 | d2D2G4z4 |
d3cB4d4 | e2d2c4c4 |
c3BA4c4 | d2c2B4B4 |
G2G2A2A2B2B2 | c2^c2d6d2 | G4z2
G3ABc | d2B2A2B4z2 |
d2d2d2e2e2e2
c2c2c2d2d2d2
G3ABcd2B2A2 | G2BBBBB6 | z8

@@@ Tune index: 5724
